X: 3
T:Sally Gardens, The
M:C|
L:1/8
R:reel
K:G
G2DG BAGB|dBeB dBAB|d2 Bd eBdB|AcBA GEDE|
G2DG BAGB|dBeB dBAB|d2 Bd efge|dBAB G3z:|
|:dggf g2dg|~g2bg aged|eaag a2ea|~a2bg ageg|
dggf g2dg|~g2bg ageg|d2 Bd efge|dBAB G3z:|

